packages/assets/static/images/icons/bold/signature--bold.svg

<svg width="24" height="24" viewBox="0 0 24 24" xmlns="http://www.w3.org/2000/svg">
<path d="M21.7527 15.3726H6.60078C6.80703 14.9582 7.01422 14.5344 7.21859 14.1051L7.29265 13.9494C8.56015 13.7947 9.98234 12.8901 11.547 11.2429C12.0448 12.3679 12.8595 13.5613 14.1336 13.8013C14.6267 13.8951 15.4002 13.8754 16.2833 13.2557C16.5894 13.0384 16.8722 12.7898 17.127 12.5141C17.8995 13.2351 19.2852 13.8726 21.7527 13.8726C22.051 13.8726 22.3372 13.754 22.5482 13.5431C22.7591 13.3321 22.8777 13.0459 22.8777 12.7476C22.8777 12.4492 22.7591 12.163 22.5482 11.9521C22.3372 11.7411 22.051 11.6226 21.7527 11.6226C18.8464 11.6226 18.432 10.6391 18.3777 10.4619C18.4236 9.9585 18.1198 9.54693 17.6389 9.37162C17.158 9.19631 16.5917 9.44475 16.3058 9.8835C15.3683 11.3197 14.7477 11.6291 14.548 11.5907C14.0905 11.5054 13.3864 10.1338 13.1005 8.76975C13.0565 8.56089 12.9539 8.36887 12.8049 8.2161C12.6558 8.06333 12.4664 7.95611 12.2587 7.90696C12.051 7.85781 11.8336 7.86876 11.6319 7.93853C11.4302 8.00831 11.2525 8.13402 11.1195 8.301C10.1539 9.51225 9.32328 10.3438 8.63797 10.8847C10.6245 5.92162 10.2317 4.11412 9.70391 3.17381C9.23516 2.33287 8.38484 1.87256 7.31515 1.87256C5.62015 1.87256 4.25515 3.42412 3.6589 6.02193C3.33547 7.43756 3.2839 9.00412 3.52203 10.3204C3.77047 11.6994 4.30578 12.7297 5.08578 13.3419C4.75484 14.0394 4.4089 14.7219 4.07797 15.3726H2.25265C1.95429 15.3726 1.66814 15.4911 1.45716 15.7021C1.24618 15.913 1.12765 16.1992 1.12765 16.4976C1.12765 16.7959 1.24618 17.0821 1.45716 17.2931C1.66814 17.504 1.95429 17.6226 2.25265 17.6226H2.88078C1.9714 19.2791 1.30109 20.3976 1.28703 20.4172C1.20973 20.5438 1.15823 20.6845 1.13549 20.831C1.11275 20.9776 1.11922 21.1272 1.15452 21.2713C1.18982 21.4153 1.25326 21.551 1.34119 21.6704C1.42912 21.7899 1.5398 21.8908 1.66687 21.9673C1.79393 22.0438 1.93487 22.0944 2.08158 22.1163C2.22829 22.1381 2.37786 22.1307 2.5217 22.0945C2.66554 22.0583 2.8008 21.994 2.91971 21.9054C3.03861 21.8167 3.1388 21.7054 3.21453 21.5779C3.27547 21.4804 4.24297 19.8726 5.44015 17.6226H21.7527C22.051 17.6226 22.3372 17.504 22.5482 17.2931C22.7591 17.0821 22.8777 16.7959 22.8777 16.4976C22.8777 16.1992 22.7591 15.913 22.5482 15.7021C22.3372 15.4911 22.051 15.3726 21.7527 15.3726ZM5.85547 6.52256C6.16859 5.15381 6.79484 4.12256 7.31515 4.12256C7.66297 4.12256 7.71734 4.21631 7.75015 4.27631C7.88422 4.5135 8.36422 5.87662 6.11515 11.0994C5.93257 10.7277 5.8062 10.3308 5.74015 9.92193C5.55547 8.8935 5.59765 7.65412 5.85547 6.52256Z"/>
</svg>

<svg viewBox="0 0 24 24" xmlns="http://www.w3.org/2000/svg" aria-hidden="true" fill="currentColor"><path d="M21.753 15.373H6.6q.31-.623.618-1.268l.074-.156c1.267-.154 2.69-1.059 4.254-2.706.498 1.125 1.313 2.318 2.587 2.558.493.094 1.266.074 2.15-.545q.459-.327.843-.742c.773.721 2.158 1.359 4.626 1.359a1.125 1.125 0 0 0 0-2.25c-2.907 0-3.321-.984-3.375-1.161.046-.503-.258-.915-.74-1.09-.48-.176-1.046.073-1.332.511-.938 1.437-1.558 1.746-1.758 1.708-.457-.086-1.162-1.457-1.447-2.821a1.125 1.125 0 0 0-1.982-.469c-.965 1.211-1.796 2.043-2.481 2.584 1.986-4.963 1.594-6.77 1.066-7.711-.469-.841-1.32-1.301-2.389-1.301-1.695 0-3.06 1.551-3.656 4.149-.324 1.416-.375 2.982-.137 4.298.248 1.38.784 2.41 1.564 3.022-.331.697-.677 1.38-1.008 2.03H2.253a1.125 1.125 0 1 0 0 2.25h.628a84 84 0 0 1-1.594 2.795 1.125 1.125 0 1 0 1.928 1.16 88 88 0 0 0 2.225-3.954h16.313a1.125 1.125 0 0 0 0-2.25M5.855 6.523c.314-1.37.94-2.4 1.46-2.4.348 0 .402.093.435.153.134.237.614 1.6-1.635 6.823a4.2 4.2 0 0 1-.375-1.177c-.185-1.029-.142-2.268.115-3.4"/></svg>
